X: 25220
T: Maloney's Last Glass
R: reel
M: 4/4
K: Dmajor
D2|:d3 c de ~f2|eded B2 g2|~f2 ed e2 dc|d2 cB A2 F2|
B3 A BcdB|FBBA B2 Bc|decd BAFE|FBAF E2 D2:|
|:B,DDB, DB,A,B,|DGFD EA A2|FBBA BdcB|AFDF EB, B,2|
B,DDB, DB,A,B,|DGFD EAAc|decd BAFE|FBAF E2 D2:|

